imagens/Elementos/instagram1.svg

<svg width="80" height="80" viewBox="0 0 80 80" fill="none" xmlns="http://www.w3.org/2000/svg">
<path d="M39.9892 26.661C32.6444 26.661 26.6505 32.655 26.6505 40C26.6505 47.345 32.6444 53.339 39.9892 53.339C47.3341 53.339 53.328 47.345 53.328 40C53.328 32.655 47.3341 26.661 39.9892 26.661ZM79.9955 40C79.9955 34.4763 80.0456 29.0026 79.7354 23.4888C79.4252 17.0845 77.9642 11.4007 73.2811 6.71751C68.588 2.02434 62.9143 0.573362 56.5101 0.263152C50.9865 -0.0470575 45.5129 0.00297645 39.9993 0.00297645C34.4756 0.00297645 29.002 -0.0470575 23.4884 0.263152C17.0842 0.573362 11.4005 2.03435 6.71739 6.71751C2.0243 11.4107 0.573351 17.0845 0.263147 23.4888C-0.0470566 29.0126 0.0029764 34.4863 0.0029764 40C0.0029764 45.5137 -0.0470566 50.9974 0.263147 56.5112C0.573351 62.9155 2.03431 68.5993 6.71739 73.2825C11.4105 77.9757 17.0842 79.4266 23.4884 79.7368C29.012 80.0471 34.4856 79.997 39.9993 79.997C45.5229 79.997 50.9965 80.0471 56.5101 79.7368C62.9143 79.4266 68.598 77.9656 73.2811 73.2825C77.9742 68.5893 79.4252 62.9155 79.7354 56.5112C80.0556 50.9974 79.9955 45.5237 79.9955 40ZM39.9892 60.5239C28.6318 60.5239 19.4658 51.3577 19.4658 40C19.4658 28.6423 28.6318 19.4761 39.9892 19.4761C51.3467 19.4761 60.5127 28.6423 60.5127 40C60.5127 51.3577 51.3467 60.5239 39.9892 60.5239ZM61.3533 23.4288C58.7015 23.4288 56.5601 21.2874 56.5601 18.6356C56.5601 15.9838 58.7015 13.8423 61.3533 13.8423C64.005 13.8423 66.1464 15.9838 66.1464 18.6356C66.1472 19.2652 66.0238 19.8889 65.7832 20.4708C65.5426 21.0527 65.1896 21.5814 64.7443 22.0267C64.2991 22.4719 63.7704 22.8249 63.1885 23.0655C62.6066 23.3062 61.983 23.4296 61.3533 23.4288Z" fill="#D32E5E"/>
</svg>

<svg width="80" height="80" fill="none" xmlns="http://www.w3.org/2000/svg"><path d="M39.99 26.661c-7.346 0-13.34 5.994-13.34 13.339 0 7.345 5.994 13.339 13.34 13.339 7.344 0 13.338-5.994 13.338-13.339 0-7.345-5.994-13.339-13.339-13.339ZM79.995 40c0-5.524.05-10.997-.26-16.511-.31-6.405-1.772-12.088-6.455-16.771C68.588 2.024 62.914.573 56.511.263c-5.525-.31-10.998-.26-16.512-.26-5.523 0-10.997-.05-16.51.26C17.083.573 11.4 2.034 6.716 6.718 2.024 11.41.573 17.084.263 23.488-.047 29.014.003 34.487.003 40c0 5.514-.05 10.997.26 16.511.31 6.404 1.771 12.088 6.454 16.771 4.694 4.694 10.367 6.145 16.771 6.455 5.524.31 10.998.26 16.511.26 5.524 0 10.997.05 16.511-.26 6.404-.31 12.088-1.771 16.771-6.454 4.693-4.694 6.144-10.367 6.454-16.772.32-5.514.26-10.987.26-16.511ZM39.989 60.524c-11.357 0-20.523-9.166-20.523-20.524s9.166-20.524 20.523-20.524c11.358 0 20.524 9.166 20.524 20.524s-9.166 20.524-20.524 20.524Zm21.364-37.095a4.787 4.787 0 0 1-4.793-4.793 4.787 4.787 0 0 1 4.793-4.794 4.787 4.787 0 0 1 4.793 4.794 4.787 4.787 0 0 1-4.793 4.793Z" fill="#D32E5E"/></svg>
